X: 23251
T: Leaving For Australia
R: jig
M: 6/8
K: Gmajor
G3 GAB|A2 A AGF|G3 GFD|DE-E ED/E/F|
G3 GAB|A2 A ABc|BAG GdB|cBG EDG-|
G3 GAB|A2 A AGF|G3 GFD|DE-E ED/E/F|
G3 GAB|A2 A ABc|BAG GdB|cBG ABd|
d2 e efg|fed edB|G2 A AGA|B3 gfd|
d2 e efg|fed eba|fga dAG|FGA dgf|
d2 e efg|fed edB|G2 A AGA|B3 gfd|
d2 e efg|fed eAB|cBG EdB|cBd A3||

